svg/timetable.svg

<svg xmlns="http://www.w3.org/2000/svg" viewBox="0 0 24 24"><path d="M14 12h1.5v2.82l2.44 1.41-.75 1.3L14 15.69zM4 2h14a2 2 0 0 1 2 2v6.1c1.24 1.26 2 2.99 2 4.9a7 7 0 0 1-7 7c-1.91 0-3.64-.76-4.9-2H4a2 2 0 0 1-2-2V4a2 2 0 0 1 2-2m0 13v3h4.67c-.43-.91-.67-1.93-.67-3zm0-7h6V5H4zm14 0V5h-6v3zM4 13h4.29c.34-1.15.97-2.18 1.81-3H4zm11-2.85A4.85 4.85 0 0 0 10.15 15c0 2.68 2.17 4.85 4.85 4.85A4.85 4.85 0 0 0 19.85 15c0-2.68-2.17-4.85-4.85-4.85"/></svg>

<?xml version="1.0" encoding="UTF-8"?><!DOCTYPE svg PUBLIC "-//W3C//DTD SVG 1.1//EN" "http://www.w3.org/Graphics/SVG/1.1/DTD/svg11.dtd"><svg xmlns="http://www.w3.org/2000/svg" xmlns:xlink="http://www.w3.org/1999/xlink" version="1.1" id="mdi-timetable" width="24" height="24" viewBox="0 0 24 24"><path d="M14,12H15.5V14.82L17.94,16.23L17.19,17.53L14,15.69V12M4,2H18A2,2 0 0,1 20,4V10.1C21.24,11.36 22,13.09 22,15A7,7 0 0,1 15,22C13.09,22 11.36,21.24 10.1,20H4A2,2 0 0,1 2,18V4A2,2 0 0,1 4,2M4,15V18H8.67C8.24,17.09 8,16.07 8,15H4M4,8H10V5H4V8M18,8V5H12V8H18M4,13H8.29C8.63,11.85 9.26,10.82 10.1,10H4V13M15,10.15A4.85,4.85 0 0,0 10.15,15C10.15,17.68 12.32,19.85 15,19.85A4.85,4.85 0 0,0 19.85,15C19.85,12.32 17.68,10.15 15,10.15Z" /></svg>
